icons/cloudy.svg

<svg width="24" height="24" viewBox="0 0 24 24" fill="none" xmlns="http://www.w3.org/2000/svg">
<path d="M7.71081 12C7.71081 10.6155 8.12983 9.26215 8.91489 8.11101C9.69995 6.95987 10.8158 6.06266 12.1213 5.53285C13.4268 5.00303 14.8633 4.86441 16.2492 5.13451C17.6352 5.4046 18.9082 6.07129 19.9074 7.05026C20.9066 8.02922 21.587 9.2765 21.8627 10.6344C22.1384 11.9922 21.9969 13.3997 21.4561 14.6788C20.9154 15.9579 19.9997 17.0511 18.8247 17.8203C17.6498 18.5895 16.2685 19 14.8554 19H6.99635C6.2871 18.9993 5.58612 18.8509 4.93991 18.5644C4.29371 18.278 3.71708 17.8602 3.24828 17.3388C2.77948 16.8173 2.42925 16.2042 2.22082 15.54C2.0124 14.8757 1.95055 14.1757 2.03938 13.4863C2.12822 12.7969 2.3657 12.1338 2.73607 11.5412C3.10644 10.9486 3.60122 10.4399 4.18758 10.049C4.77394 9.65806 5.43847 9.39378 6.13704 9.27371C6.83562 9.15364 7.55228 9.18052 8.23944 9.35256" stroke="#1E293B" stroke-width="2" stroke-linecap="round" stroke-linejoin="round"/>
</svg>

<svg
  width="24"
  height="24"
  viewBox="0 0 24 24"
  xmlns="http://www.w3.org/2000/svg"
  fill="none"
  stroke="currentColor"
  stroke-width="2"
  stroke-linecap="round"
  stroke-linejoin="round"
>
  <path d="M7.71 12a6.9 6.9 0 0 1 1.205-3.889 7.115 7.115 0 0 1 3.206-2.578 7.282 7.282 0 0 1 4.128-.398 7.191 7.191 0 0 1 3.658 1.915c1 .98 1.68 2.227 1.956 3.584a6.868 6.868 0 0 1-.407 4.045 7.032 7.032 0 0 1-2.631 3.141 7.25 7.25 0 0 1-3.97 1.18H6.996c-.709 0-1.41-.15-2.056-.436a4.996 4.996 0 0 1-1.692-1.225 4.874 4.874 0 0 1-1.027-1.799 4.806 4.806 0 0 1 .515-3.999 4.944 4.944 0 0 1 1.452-1.492 5.06 5.06 0 0 1 1.949-.775 5.102 5.102 0 0 1 2.102.079" />
</svg>
